X:1
T:The Battle of Harlaw
M:6/8
L:1/4
K:F
 A/2| c c/2 A c/2| d d/2 c A/2| c c/2 A c/2| d3/2 f f/2| c c/2 A c/2|\
 d d/2 c A/2| c A/2 G F/2| G3/2 A G/2| F D/2 D D/2| C A,/2 C C/2| D D/2 F G/2|\
 F3/2- F||
